public/customer/8.svg

<svg width="250" height="116" viewBox="0 0 250 116" fill="none" xmlns="http://www.w3.org/2000/svg">
<path d="M136.735 71.5582V40.2427H142.253V71.5582H136.735Z" fill="white" fill-opacity="0.6"/>
<path d="M90.0281 41.1089L101.695 71.5582H106.244L118.038 41.1089H111.931L104.038 62.4874L96.2195 41.1089H90.0281Z" fill="white" fill-opacity="0.6"/>
<path fill-rule="evenodd" clip-rule="evenodd" d="M118.862 70.5619C120.518 71.5149 122.372 71.9915 124.422 71.9915C126.471 71.9915 128.311 71.5149 129.94 70.5619C131.596 69.5806 132.902 68.2663 133.857 66.6204C134.812 64.9456 135.289 63.0833 135.289 61.0332C135.289 58.983 134.812 57.1494 133.857 55.5323C132.902 53.8864 131.596 52.5871 129.94 51.6342C128.311 50.6524 126.457 50.1615 124.38 50.1615C122.358 50.1615 120.518 50.6524 118.862 51.6342C117.205 52.5871 115.899 53.8864 114.945 55.5323C113.99 57.1494 113.513 58.983 113.513 61.0332C113.513 63.0833 113.99 64.9456 114.945 66.6204C115.927 68.2663 117.233 69.5806 118.862 70.5619ZM127.118 66.014C126.331 66.4761 125.418 66.7075 124.38 66.7075C123.369 66.7075 122.47 66.4761 121.684 66.014C120.898 65.5231 120.28 64.859 119.831 64.022C119.381 63.1554 119.157 62.1737 119.157 61.0764C119.157 59.9792 119.381 59.0119 119.831 58.1745C120.28 57.3371 120.898 56.6874 121.684 56.2254C122.47 55.7345 123.369 55.489 124.38 55.489C125.418 55.489 126.331 55.7345 127.118 56.2254C127.904 56.6874 128.521 57.3371 128.971 58.1745C129.42 59.0119 129.645 59.9792 129.645 61.0764C129.645 62.1737 129.42 63.1554 128.971 64.022C128.549 64.859 127.932 65.5231 127.118 66.014Z" fill="white" fill-opacity="0.6"/>
<path d="M148.911 70.8221C150.315 71.6015 151.915 71.9915 153.713 71.9915C155.51 71.9915 157.096 71.6159 158.472 70.8653C159.876 70.0859 160.957 69.0031 161.715 67.6167C162.502 66.231 162.895 64.6139 162.895 62.7654V50.6379H157.377V62.6357C157.377 63.9354 157.054 64.9456 156.408 65.6679C155.762 66.3896 154.864 66.7508 153.713 66.7508C152.954 66.7508 152.294 66.5915 151.733 66.2742C151.171 65.9563 150.75 65.4942 150.47 64.8879C150.188 64.2527 150.048 63.5022 150.048 62.6357V50.6379H144.488V62.7654C144.488 64.585 144.881 66.1877 145.668 67.5734C146.454 68.9598 147.535 70.042 148.911 70.8221Z" fill="white" fill-opacity="0.6"/>
<path d="M165.183 71.5582V50.638H170.701V52.453C171.194 51.9575 171.755 51.5402 172.385 51.201C173.565 50.5369 174.899 50.2048 176.387 50.2048C177.791 50.2048 179.068 50.5369 180.219 51.201C181.185 51.7334 181.982 52.4584 182.612 53.3761C183.292 52.483 184.123 51.7724 185.105 51.2444C186.341 50.5513 187.717 50.2048 189.233 50.2048C190.75 50.2048 192.112 50.5369 193.319 51.201C194.527 51.8363 195.481 52.7603 196.183 53.973C196.885 55.1858 197.237 56.6296 197.237 58.3044V71.5582H191.719V59.214C191.719 58.0012 191.34 57.0628 190.581 56.3986C189.851 55.7056 188.938 55.3591 187.843 55.3591C187.141 55.3591 186.482 55.5179 185.864 55.8356C185.274 56.1243 184.811 56.5575 184.474 57.135C184.137 57.7124 183.968 58.4055 183.968 59.214V71.5582H178.451V59.214C178.451 58.0012 178.071 57.0628 177.313 56.3986C176.583 55.7056 175.671 55.3591 174.576 55.3591C173.846 55.3591 173.185 55.5179 172.596 55.8356C172.006 56.1243 171.543 56.5575 171.206 57.135C170.869 57.7124 170.701 58.4055 170.701 59.214V71.5582H165.183Z" fill="white" fill-opacity="0.6"/>
<path fill-rule="evenodd" clip-rule="evenodd" d="M203.646 70.6051C205.303 71.5294 207.199 71.9915 209.333 71.9915C210.99 71.9915 212.52 71.688 213.924 71.0817C215.356 70.4753 216.563 69.5806 217.546 68.3967L214.303 65.0616C213.685 65.7833 212.955 66.3319 212.113 66.7075C211.27 67.0536 210.33 67.2267 209.291 67.2267C208.14 67.2267 207.129 66.9815 206.258 66.4906C205.388 65.9708 204.713 65.2491 204.236 64.3248C204.057 63.9442 203.913 63.5379 203.805 63.1065L218.684 63.0689C218.796 62.578 218.866 62.1449 218.894 61.7695C218.951 61.3653 218.979 60.9754 218.979 60.6C218.979 58.6076 218.543 56.8318 217.673 55.2725C216.83 53.6843 215.651 52.4427 214.135 51.5475C212.646 50.6235 210.92 50.1615 208.954 50.1615C206.96 50.1615 205.149 50.6524 203.52 51.6342C201.891 52.5871 200.6 53.8864 199.645 55.5323C198.718 57.1494 198.255 58.9974 198.255 61.0764C198.255 63.1843 198.732 65.0616 199.687 66.7075C200.67 68.3528 201.99 69.6527 203.646 70.6051ZM203.81 58.8608C203.909 58.4779 204.037 58.1192 204.194 57.7847C204.643 56.8606 205.275 56.1531 206.09 55.6623C206.904 55.1425 207.859 54.8827 208.954 54.8827C209.993 54.8827 210.863 55.1137 211.565 55.5757C212.295 56.0088 212.843 56.644 213.208 57.4814C213.397 57.8846 213.548 58.3346 213.659 58.8315L203.81 58.8608Z" fill="white" fill-opacity="0.6"/>
<path fill-rule="evenodd" clip-rule="evenodd" d="M56.1163 84.1376C70.2707 84.1376 81.7445 72.3382 81.7445 57.7829C81.7445 43.2277 70.2707 31.4285 56.1163 31.4285C41.9621 31.4285 30.4878 43.2277 30.4878 57.7829C30.4878 72.3382 41.9621 84.1376 56.1163 84.1376ZM66.7305 41.652C67.0347 41.9165 67.2097 42.3053 67.2097 42.715L67.2091 48.0098L67.2097 48.3582L67.2091 48.3998V66.1244C67.2091 69.2025 64.7823 71.6974 61.789 71.6974C58.7956 71.6974 56.3691 69.2025 56.3691 66.1244C56.3691 63.0457 58.7956 60.5504 61.789 60.5504C62.7762 60.5504 63.7018 60.8219 64.4988 61.2961V50.003L50.9486 52.3258V68.9109C50.9486 71.989 48.5221 74.4845 45.5286 74.4845C42.5352 74.4845 40.1087 71.989 40.1087 68.9109C40.1087 65.8328 42.5352 63.3372 45.5286 63.3372C46.5159 63.3372 47.4419 63.6087 48.2386 64.0828L48.2392 51.145L48.2386 50.7965L48.2392 50.7549V45.5017C48.2392 44.8208 48.718 44.2394 49.3718 44.1273L65.6317 41.3406C66.0244 41.2732 66.4262 41.3872 66.7305 41.652Z" fill="white" fill-opacity="0.6"/>
</svg>

<svg xmlns="http://www.w3.org/2000/svg" width="250" height="116" fill="none"><path fill="#fff" fill-opacity=".6" d="M136.735 71.558V40.243h5.518v31.315h-5.518ZM90.028 41.109l11.667 30.45h4.549l11.794-30.45h-6.107l-7.893 21.378-7.819-21.378h-6.19Z"/><path fill="#fff" fill-opacity=".6" fill-rule="evenodd" d="M118.862 70.562c1.656.953 3.51 1.43 5.56 1.43 2.049 0 3.889-.477 5.518-1.43a10.84 10.84 0 0 0 3.917-3.942c.955-1.674 1.432-3.537 1.432-5.587s-.477-3.884-1.432-5.5a10.512 10.512 0 0 0-3.917-3.899c-1.629-.982-3.483-1.473-5.56-1.473-2.022 0-3.862.491-5.518 1.473a10.497 10.497 0 0 0-3.917 3.898c-.955 1.617-1.432 3.451-1.432 5.501 0 2.05.477 3.913 1.432 5.587a11.272 11.272 0 0 0 3.917 3.942Zm8.256-4.548c-.787.462-1.7.694-2.738.694-1.011 0-1.91-.232-2.696-.694a5.204 5.204 0 0 1-1.853-1.992c-.45-.867-.674-1.848-.674-2.946 0-1.097.224-2.064.674-2.901a4.888 4.888 0 0 1 1.853-1.95c.786-.49 1.685-.736 2.696-.736 1.038 0 1.951.245 2.738.736a4.894 4.894 0 0 1 1.853 1.95c.449.837.674 1.804.674 2.901 0 1.098-.225 2.08-.674 2.946a4.818 4.818 0 0 1-1.853 1.992Z" clip-rule="evenodd"/><path fill="#fff" fill-opacity=".6" d="M148.911 70.822c1.404.78 3.004 1.17 4.802 1.17 1.797 0 3.383-.376 4.759-1.127a8.093 8.093 0 0 0 3.243-3.248c.787-1.386 1.18-3.003 1.18-4.852V50.638h-5.518v11.998c0 1.3-.323 2.31-.969 3.032-.646.722-1.544 1.083-2.695 1.083-.759 0-1.419-.16-1.98-.477a2.987 2.987 0 0 1-1.263-1.386c-.282-.635-.422-1.386-.422-2.252V50.638h-5.56v12.127c0 1.82.393 3.423 1.18 4.808a8.462 8.462 0 0 0 3.243 3.25ZM165.183 71.558v-20.92h5.518v1.815a7.123 7.123 0 0 1 1.684-1.252c1.18-.664 2.514-.996 4.002-.996 1.404 0 2.681.332 3.832.996a6.916 6.916 0 0 1 2.393 2.175 7.659 7.659 0 0 1 2.493-2.132c1.236-.693 2.612-1.04 4.128-1.04 1.517 0 2.879.333 4.086.997 1.208.635 2.162 1.56 2.864 2.772.702 1.213 1.054 2.657 1.054 4.331v13.254h-5.518V59.214c0-1.213-.379-2.151-1.138-2.815-.73-.693-1.643-1.04-2.738-1.04-.702 0-1.361.159-1.979.477a3.217 3.217 0 0 0-1.39 1.299c-.337.577-.506 1.27-.506 2.079v12.344h-5.517V59.214c0-1.213-.38-2.151-1.138-2.815-.73-.693-1.642-1.04-2.737-1.04-.73 0-1.391.159-1.98.477a3.217 3.217 0 0 0-1.39 1.299c-.337.577-.505 1.27-.505 2.079v12.344h-5.518Z"/><path fill="#fff" fill-opacity=".6" fill-rule="evenodd" d="M203.646 70.605c1.657.924 3.553 1.386 5.687 1.386 1.657 0 3.187-.303 4.591-.91a9.403 9.403 0 0 0 3.622-2.684l-3.243-3.335a6.16 6.16 0 0 1-2.19 1.645c-.843.347-1.783.52-2.822.52-1.151 0-2.162-.246-3.033-.736a5.3 5.3 0 0 1-2.022-2.166 6.651 6.651 0 0 1-.431-1.219l14.879-.037a8.92 8.92 0 0 0 .21-1.3c.057-.404.085-.794.085-1.169 0-1.992-.436-3.768-1.306-5.328-.843-1.588-2.022-2.83-3.538-3.724-1.489-.925-3.215-1.387-5.181-1.387-1.994 0-3.805.491-5.434 1.473a10.6 10.6 0 0 0-3.875 3.898c-.927 1.617-1.39 3.465-1.39 5.544 0 2.108.477 3.986 1.432 5.631a10.832 10.832 0 0 0 3.959 3.898Zm.164-11.744a6.15 6.15 0 0 1 .384-1.076c.449-.924 1.081-1.632 1.896-2.123.814-.52 1.769-.78 2.864-.78 1.039 0 1.909.232 2.611.694.73.433 1.278 1.068 1.643 1.905.189.404.34.854.451 1.35l-9.849.03ZM56.116 84.138c14.155 0 25.629-11.8 25.629-26.355S70.27 31.428 56.115 31.428c-14.154 0-25.628 11.8-25.628 26.355s11.474 26.355 25.628 26.355Zm10.615-42.486c.304.264.479.653.479 1.063v23.409c0 3.079-2.428 5.573-5.421 5.573-2.993 0-5.42-2.495-5.42-5.573 0-3.078 2.427-5.574 5.42-5.574a5.28 5.28 0 0 1 2.71.746V50.003l-13.55 2.323V68.91c0 3.078-2.427 5.573-5.42 5.573-2.994 0-5.42-2.495-5.42-5.573 0-3.078 2.426-5.574 5.42-5.574.987 0 1.913.272 2.71.746V45.502c0-.681.479-1.263 1.133-1.375l16.26-2.786a1.33 1.33 0 0 1 1.099.311Z" clip-rule="evenodd"/></svg>
